Icons/org_leetzone_android_yatsewidgetfree.svg

<svg viewBox="0 0 48 48" xmlns:xlink="http://www.w3.org/1999/xlink">
 <defs>
  <linearGradient id="0">
   <stop stop-opacity="0"/>
   <stop offset="1"/>
  </linearGradient>
  <linearGradient xlink:href="#0" id="1" gradientUnits="userSpaceOnUse" gradientTransform="translate(4e-7,-48)" y1="47" x2="0" y2="1"/>
  <clipPath id="2">
   <g transform="translate(0,-1004.3622)">
    <rect rx="4" y="1005.36" x="1" height="46" width="46" fill="#1890d0"/>
   </g>
  </clipPath>
  <clipPath id="3">
   <g transform="translate(0,-1004.3622)">
    <rect rx="4" y="1005.36" x="1" height="46" width="46" fill="#1890d0"/>
   </g>
  </clipPath>
 </defs>
 <g>
  <g transform="translate(0,-1004.3622)">
   <path d="m 5,1006.3622 c -2.216,0 -4,1.784 -4,4 l 0,37.25 c 0,2.216 1.784,4 4,4 l 38,0 c 2.216,0 4,-1.784 4,-4 l 0,-37.25 c 0,-2.216 -1.784,-4 -4,-4 l -38,0 z m -4,41.5 0,0.5 c 0,2.216 1.784,4 4,4 l 38,0 c 2.216,0 4,-1.784 4,-4 l 0,-0.5 c 0,2.216 -1.784,4 -4,4 l -38,0 c -2.216,0 -4,-1.784 -4,-4 z" opacity="0.02"/>
   <path d="m 1,1047.6122 0,0.25 c 0,2.216 1.784,4 4,4 l 38,0 c 2.216,0 4,-1.784 4,-4 l 0,-0.25 c 0,2.216 -1.784,4 -4,4 l -38,0 c -2.216,0 -4,-1.784 -4,-4 z" opacity="0.05"/>
   <rect width="46" height="46" x="1" y="1005.61" rx="4" opacity="0.1"/>
  </g>
 </g>
 <g>
  <g transform="translate(0,-1004.3622)">
   <rect rx="4" y="1005.36" x="1" height="46" width="46" fill="#eeeeee"/>
  </g>
 </g>
 <g>
  <rect transform="scale(1,-1)" width="46" height="46" x="1" y="-46.998" rx="4" opacity="0.1" fill="url(#1)"/>
 </g>
 <g>
  <g clip-path="url(#2)">
   <g opacity="0.1">
    <g>
     <path d="M 30 30 L 30 31 C 32 31 34 29 34 27 L 33 27 C 33 28 31 30 30 30 Z M 30 30 "/>
     <path d="M 30 32 L 30 33 C 34 33 36 31 36 27 L 35 27 C 35 30 33 32 30 32 Z M 30 32 "/>
     <path d="M 30 34 L 30 35 C 36 35 38 33 38 27 L 37 27 C 37 32 35 34 30 34 Z M 30 34 "/>
     <path d="M 19.5625 13.5625 L 18 19 L 20 25 L 25 25 L 25 19 Z M 19.5625 13.5625 "/>
     <path d="M 25 19 L 20 25 L 17 34 L 20 42 L 32.5 24.625 L 33 18 Z M 25 19 "/>
     <path d="M 32 10 L 25 19 L 32.40625 24.78125 L 42.65625 10.5625 C 42.519531 10.371094 42.394531 10.1875 42.25 10 Z M 32 10 "/>
     <path d="M 5.75 10 C 5.648438 10.132812 5.566406 10.273438 5.46875 10.40625 L 20 25 L 20 14 L 16 10 Z M 20 25 L 9.1875 41.59375 C 9.351562 41.730469 9.519531 41.867188 9.6875 42 L 20 42 Z M 20 25 "/>
    </g>
   </g>
  </g>
 </g>
 <g>
  <g clip-path="url(#3)">
   <g transform="translate(0,-1)">
    <g>
     <path d="M 30 30 L 30 31 C 32 31 34 29 34 27 L 33 27 C 33 28 31 30 30 30 Z M 30 30 " fill="#666666"/>
     <path d="M 30 32 L 30 33 C 34 33 36 31 36 27 L 35 27 C 35 30 33 32 30 32 Z M 30 32 " fill="#666666"/>
     <path d="M 30 34 L 30 35 C 36 35 38 33 38 27 L 37 27 C 37 32 35 34 30 34 Z M 30 34 " fill="#666666"/>
     <path d="M 19.5625 13.5625 L 18 19 L 20 25 L 25 25 L 25 19 Z M 19.5625 13.5625 " fill="#20b0cf"/>
     <path d="M 25 19 L 20 25 L 17 34 L 20 42 L 32.5 24.625 L 33 18 Z M 25 19 " fill="#1ebbe2"/>
     <path d="M 32 10 L 25 19 L 32.40625 24.78125 L 42.65625 10.5625 C 42.519531 10.371094 42.394531 10.1875 42.25 10 Z M 32 10 " fill="#169cc7"/>
     <path d="M 5.75 10 C 5.648438 10.132812 5.566406 10.273438 5.46875 10.40625 L 20 25 L 20 14 L 16 10 Z M 20 25 L 9.1875 41.59375 C 9.351562 41.730469 9.519531 41.867188 9.6875 42 L 20 42 Z M 20 25 " fill="#169cc7"/>
    </g>
   </g>
  </g>
 </g>
 <g>
  <g transform="translate(0,-1004.3622)">
   <path d="m 1,1043.3622 0,4 c 0,2.216 1.784,4 4,4 l 38,0 c 2.216,0 4,-1.784 4,-4 l 0,-4 c 0,2.216 -1.784,4 -4,4 l -38,0 c -2.216,0 -4,-1.784 -4,-4 z" opacity="0.1"/>
  </g>
 </g>
</svg>

<svg viewBox="0 0 48 48"><defs><linearGradient id="linearGradient3764" x1="1" x2="47" gradientUnits="userSpaceOnUse" gradientTransform="translate(-48.000001,0.00221467)"><stop stop-color="#e4e4e4" stop-opacity="1"/><stop offset="1" stop-color="#eee" stop-opacity="1"/></linearGradient><clipPath id="clipPath-810224271"><g transform="translate(0,-1004.3622)"><rect rx="4" y="1005.36" x="1" height="46" width="46" fill="#1890d0"/></g></clipPath><clipPath id="clipPath-837978603"><g transform="translate(0,-1004.3622)"><rect rx="4" y="1005.36" x="1" height="46" width="46" fill="#1890d0"/></g></clipPath></defs><g><path d="m 1 43 l 0 0.25 c 0 2.216 1.784 4 4 4 l 38 0 c 2.216 0 4 -1.784 4 -4 l 0 -0.25 c 0 2.216 -1.784 4 -4 4 l -38 0 c -2.216 0 -4 -1.784 -4 -4 z m 0 0.5 l 0 0.5 c 0 2.216 1.784 4 4 4 l 38 0 c 2.216 0 4 -1.784 4 -4 l 0 -0.5 c 0 2.216 -1.784 4 -4 4 l -38 0 c -2.216 0 -4 -1.784 -4 -4 z" opacity="0.02"/><path d="m 1 43.25 l 0 0.25 c 0 2.216 1.784 4 4 4 l 38 0 c 2.216 0 4 -1.784 4 -4 l 0 -0.25 c 0 2.216 -1.784 4 -4 4 l -38 0 c -2.216 0 -4 -1.784 -4 -4 z" opacity="0.05"/><path d="m 1 43 l 0 0.25 c 0 2.216 1.784 4 4 4 l 38 0 c 2.216 0 4 -1.784 4 -4 l 0 -0.25 c 0 2.216 -1.784 4 -4 4 l -38 0 c -2.216 0 -4 -1.784 -4 -4 z" opacity="0.1"/></g><g><rect width="46" height="46" x="-47" y="1" rx="4" transform="matrix(0,-1,1,0,0,0)" fill="url(#linearGradient3764)" fill-opacity="1"/></g><g><g clip-path="url(#clipPath-810224271)"><g opacity="0.1"><!-- color: #eeeeee --><g><path d="m 30 30 l 0 1 c 2 0 4 -2 4 -4 l -1 0 c 0 1 -2 3 -3 3 m 0 0" fill="#000"/><path d="m 30 32 l 0 1 c 4 0 6 -2 6 -6 l -1 0 c 0 3 -2 5 -5 5 m 0 0" fill="#000"/><path d="m 30 34 l 0 1 c 6 0 8 -2 8 -8 l -1 0 c 0 5 -2 7 -7 7 m 0 0" fill="#000"/><path d="m 19.563 13.563 l -1.563 5.438 l 2 6 l 5 0 l 0 -6 m -5.438 -5.438" fill="#000"/><path d="m 25 19 l -5 6 l -3 9 l 3 8 l 12.5 -17.375 l 0.5 -6.625 m -8 1" fill="#000"/><path d="m 32 10 l -7 9 l 7.406 5.781 l 10.25 -14.219 c -0.137 -0.191 -0.262 -0.375 -0.406 -0.563 m -10.25 0" fill="#000"/><path d="m 5.75 10 c -0.102 0.133 -0.184 0.273 -0.281 0.406 l 14.531 14.594 l 0 -11 l -4 -4 m 4 15 l -10.813 16.594 c 0.164 0.137 0.332 0.273 0.5 0.406 l 10.313 0 m 0 -17" fill="#000"/></g></g></g></g><g><g clip-path="url(#clipPath-837978603)"><g transform="translate(0,-1)"><!-- color: #eeeeee --><g><path d="m 30 30 l 0 1 c 2 0 4 -2 4 -4 l -1 0 c 0 1 -2 3 -3 3 m 0 0" fill="#666"/><path d="m 30 32 l 0 1 c 4 0 6 -2 6 -6 l -1 0 c 0 3 -2 5 -5 5 m 0 0" fill="#666"/><path d="m 30 34 l 0 1 c 6 0 8 -2 8 -8 l -1 0 c 0 5 -2 7 -7 7 m 0 0" fill="#666"/><path d="m 19.563 13.563 l -1.563 5.438 l 2 6 l 5 0 l 0 -6 m -5.438 -5.438" fill="#20b0cf"/><path d="m 25 19 l -5 6 l -3 9 l 3 8 l 12.5 -17.375 l 0.5 -6.625 m -8 1" fill="#1ebbe2"/><path d="m 32 10 l -7 9 l 7.406 5.781 l 10.25 -14.219 c -0.137 -0.191 -0.262 -0.375 -0.406 -0.563 m -10.25 0" fill="#169cc7"/><path d="m 5.75 10 c -0.102 0.133 -0.184 0.273 -0.281 0.406 l 14.531 14.594 l 0 -11 l -4 -4 m 4 15 l -10.813 16.594 c 0.164 0.137 0.332 0.273 0.5 0.406 l 10.313 0 m 0 -17" fill="#169cc7"/></g></g></g></g><g><g transform="translate(0,-1004.3622)"><path d="m 1 1043.36 0 4 c 0 2.216 1.784 4 4 4 l 38 0 c 2.216 0 4 -1.784 4 -4 l 0 -4 c 0 2.216 -1.784 4 -4 4 l -38 0 c -2.216 0 -4 -1.784 -4 -4 z" opacity="0.1"/></g></g></svg>
